X: 85
T:The Cowboy's
M:6/8
L:1/8
Q:90
C:Traditional Irish
R:Jig
K:G
B-A|:"G"G-DE G2 A|"Em"Bg-f gdB|"Am"A-Bc B-cA|"D"B-cA BGE|"G"G-DE G2 A |"
Em"Bg-f gdB|!
"Am"A-Bc B-cA|[1"D"BG-F "G"G2 B-A:|[2"D"BG-F "G"G2 (2B-d||"C" e2 e e2 e|
e3 {fg}edB|"Bm"d2 d d2 d|!
dge dBG| "C"c2 d "Am"e2 f|"G"gdB "D"A2 c|"G"BGA "C"B-cA|[1"D"BG-F "G"G2
(2B-d:|[2"D"BG-F "G"G3|]
